assets/icons/tools-jira.svg

<svg width="18px" height="18px" viewBox="0 0 18 18" version="1.1" xmlns="http://www.w3.org/2000/svg" xmlns:xlink="http://www.w3.org/1999/xlink">
    <!-- Generator: Sketch 47.1 (45422) - http://www.bohemiancoding.com/sketch -->
    <desc>Jira icon - Created with Sketch.</desc>
    <defs></defs>
    <g id="-" stroke="none" stroke-width="1" fill="none" fill-rule="evenodd">
        <g id="intranet.st.5" transform="translate(-345.000000, -335.000000)" fill-rule="nonzero" fill="#FFFFFF">
            <g id="Aside-Left" transform="translate(0.000000, 80.000000)">
                <g id="Group-9" transform="translate(100.000000, 75.000000)">
                    <g id="Group-13" transform="translate(0.000000, 51.000000)">
                        <g id="Group-10">
                            <g id="Group-26" transform="translate(244.000000, 129.000000)">
                                <g id="Jira-white" transform="translate(1.000000, 0.000000)">
                                    <path d="M16.8463566,0 L8.43636364,0 C8.43636364,1.01277729 8.83622617,1.98407386 9.54798604,2.70021556 C10.2597459,3.41635725 11.2250995,3.81868146 12.2316799,3.81868146 L13.7804413,3.81868146 L13.7804413,5.32315878 C13.7817835,7.43120291 15.4806114,9.13939437 17.5757576,9.13939394 L17.5757576,0.733891376 C17.5757576,0.328574361 17.2491936,2.48185093e-17 16.8463566,0 Z" id="Shape"></path>
                                    <path d="M12.6279807,4.21818182 L4.21818182,4.21818182 C4.21952332,6.3252711 5.91732205,8.03306757 8.01207606,8.03441697 L9.56124954,8.03441697 L9.56124954,9.5388943 C9.56124954,10.5516716 9.96121847,11.5229682 10.6731677,12.2391099 C11.385117,12.9552515 12.3507274,13.3575758 13.3575758,13.3575758 L13.3575758,4.95207319 C13.3575758,4.54675618 13.0309249,4.21818182 12.6279807,4.21818182 Z" id="Shape"></path>
                                    <path d="M8.40979889,8.43636364 L0,8.43636364 C0.0013425392,10.5444078 1.70062253,12.2525992 3.79632622,12.2525988 L5.35036367,12.2525988 L5.35036367,13.7570761 C5.3503598,15.8632129 7.04559067,17.5717099 9.13939394,17.5757576 L9.13939394,9.17025501 C9.13939394,8.764938 8.81274311,8.43636364 8.40979889,8.43636364 Z" id="Shape"></path>
                                </g>
                            </g>
                        </g>
                    </g>
                </g>
            </g>
        </g>
    </g>
</svg>

<svg id="Layer_1" data-name="Layer 1" xmlns="http://www.w3.org/2000/svg" viewBox="0 0 17.58 17.58"><title>tools-jira</title><g id="_-" data-name="-"><g id="intranet.st.5"><g id="Aside-Left"><g id="Group-9"><g id="Group-13"><g id="Group-10"><g id="Group-26"><g id="Jira-white"><path id="Shape" d="M16.85,0H8.44A3.83,3.83,0,0,0,9.55,2.7a3.78,3.78,0,0,0,2.68,1.12h1.55v1.5a3.81,3.81,0,0,0,3.8,3.82V0.73A0.73,0.73,0,0,0,16.85,0Z"/><path id="Shape-2" data-name="Shape" d="M12.63,4.22H4.22A3.81,3.81,0,0,0,8,8H9.56v1.5a3.83,3.83,0,0,0,1.11,2.7,3.79,3.79,0,0,0,2.68,1.12V5A0.73,0.73,0,0,0,12.63,4.22Z"/><path id="Shape-3" data-name="Shape" d="M8.41,8.44H0a3.81,3.81,0,0,0,3.8,3.82H5.35v1.5a3.81,3.81,0,0,0,3.79,3.82V9.17A0.73,0.73,0,0,0,8.41,8.44Z"/></g></g></g></g></g></g></g></g></svg>
